src/components/00-materials/images-raw/Woman.svg

<svg width="96" height="96" viewBox="0 0 96 96" fill="none" xmlns="http://www.w3.org/2000/svg">
<path d="M53 31H44C41.3839 31.1346 38.9017 32.1984 37 34V41C37 47.64 41 53 48 53C55 53 59 47.61 59 41V28C59 28 56 31 53 31Z" stroke="#00008F" stroke-width="2" stroke-linecap="round" stroke-linejoin="round"/>
<path d="M31 29.3099C30.9974 27.4333 31.3644 25.5746 32.0801 23.8398C32.7958 22.1051 33.8462 20.5283 35.1713 19.1995C36.4964 17.8707 38.0702 16.8159 39.803 16.0953C41.5357 15.3748 43.3934 15.0025 45.27 14.9999H47.46C49.9815 14.9592 52.469 15.5851 54.671 16.8143C56.8729 18.0434 58.7112 19.8323 60 21.9999C60.6676 21.9574 61.3367 22.0575 61.9626 22.2938C62.5885 22.53 63.1569 22.8968 63.63 23.3699C64.1031 23.843 64.4699 24.4114 64.7061 25.0373C64.9424 25.6632 65.0425 26.3323 65 26.9999V44.9999C64.981 46.4176 65.342 47.8144 66.0454 49.0454C66.7488 50.2763 67.769 51.2965 69 51.9999C68.3788 53.2378 67.4747 54.312 66.3611 55.1355C65.2475 55.959 63.9556 56.5086 62.59 56.7399L61 56.9999M41 50.6899V56.0999M55 50.6899V56.0999M55 56.1799L63.11 57.4299C66.145 57.9045 68.9105 59.4483 70.9074 61.7826C72.9043 64.1169 74.0011 67.088 74 70.1599V74.8499C74.003 75.7811 73.681 76.6842 73.0896 77.4034C72.4981 78.1226 71.6742 78.613 70.76 78.7899L60.09 80.7899C52.1045 82.3399 43.8955 82.3399 35.91 80.7899L25.24 78.7899C24.3258 78.613 23.5019 78.1226 22.9104 77.4034C22.319 76.6842 21.997 75.7811 22 74.8499V70.1599C21.9989 67.088 23.0957 64.1169 25.0926 61.7826C27.0895 59.4483 29.855 57.9045 32.89 57.4299L41 56.1799" stroke="#00008F" stroke-width="2" stroke-linecap="round" stroke-linejoin="round"/>
<path d="M37 57L39.87 63C40.6003 64.5379 41.7518 65.8372 43.1908 66.7469C44.6299 67.6567 46.2975 68.1395 48 68.1395C49.7025 68.1395 51.3701 67.6567 52.8092 66.7469C54.2482 65.8372 55.3997 64.5379 56.13 63L59 57M33 75V80.17M63 75V80.17M35 57L33.41 56.74C32.0444 56.5087 30.7525 55.959 29.6389 55.1356C28.5253 54.3121 27.6212 53.2379 27 52C28.231 51.2966 29.2512 50.2764 29.9546 49.0455C30.658 47.8145 31.0189 46.4176 31 45V29" stroke="#00008F" stroke-width="2" stroke-linecap="round" stroke-linejoin="round"/>
</svg>

<svg width="96" height="96" viewBox="0 0 96 96" fill="none" xmlns="http://www.w3.org/2000/svg"><path d="M53 31h-9a11 11 0 00-7 3v7c0 6.64 4 12 11 12s11-5.39 11-12V28s-3 3-6 3z" stroke="#00008F" stroke-width="2" stroke-linecap="round" stroke-linejoin="round"/><path d="M31 29.31A14.291 14.291 0 0145.27 15h2.19A14.32 14.32 0 0160 22a4.71 4.71 0 015 5v18a7.94 7.94 0 004 7 8.82 8.82 0 01-6.41 4.74L61 57m-20-6.31v5.41m14-5.41v5.41m0 .08l8.11 1.25A12.88 12.88 0 0174 70.16v4.69a4 4 0 01-3.24 3.94l-10.67 2a63.45 63.45 0 01-24.18 0l-10.67-2A4 4 0 0122 74.85v-4.69a12.88 12.88 0 0110.89-12.73L41 56.18" stroke="#00008F" stroke-width="2" stroke-linecap="round" stroke-linejoin="round"/><path d="M37 57l2.87 6a9 9 0 0016.26 0L59 57M33 75v5.17M63 75v5.17M35 57l-1.59-.26A8.82 8.82 0 0127 52a7.94 7.94 0 004-7V29" stroke="#00008F" stroke-width="2" stroke-linecap="round" stroke-linejoin="round"/></svg>
